symbols/web/minor_crash/materialsymbolsoutlined/minor_crash_wght200_40px.svg

<svg xmlns="http://www.w3.org/2000/svg" height="40" width="40"><path d="M13.333 10.125 9.708 6.5l.959-.958 3.625 3.625Zm13.334 0-.959-.958 3.625-3.625.959.958Zm-7.375-1.917V1.792h1.416v6.416ZM7.375 38.333q-.292 0-.5-.208-.208-.208-.208-.5V25.333L10 15.708q.083-.333.396-.52.312-.188.646-.188h18.041q.334 0 .584.188.25.187.333.52l3.333 9.625v12.292q0 .292-.208.5-.208.208-.5.208H32.5q-.333 0-.521-.208-.187-.208-.187-.5v-2.667H8.208v2.667q0 .292-.208.5-.208.208-.5.208Zm1.292-14.416h22.666l-2.625-7.5H11.292Zm-.584 9.625v-8.209 8.209Zm4.125-2.292q.75 0 1.25-.542.5-.541.5-1.25 0-.791-.52-1.312-.521-.521-1.271-.521-.75 0-1.271.521-.521.521-.521 1.312 0 .75.542 1.271.541.521 1.291.521Zm15.625 0q.75 0 1.271-.542.521-.541.521-1.25 0-.791-.521-1.312t-1.271-.521q-.75 0-1.271.521-.52.521-.52 1.312 0 .75.541 1.271.542.521 1.25.521Zm-19.75 2.292h23.834v-8.209H8.083Z"/></svg>

<svg xmlns="http://www.w3.org/2000/svg" height="40" width="40"><path d="M13.333 10.125 9.708 6.5 10.667 5.542 14.292 9.167ZM26.667 10.125 25.708 9.167 29.333 5.542 30.292 6.5ZM19.292 8.208V1.792H20.708V8.208ZM7.375 38.333Q7.083 38.333 6.875 38.125Q6.667 37.917 6.667 37.625V25.333L10 15.708Q10.083 15.375 10.396 15.188Q10.708 15 11.042 15H29.083Q29.417 15 29.667 15.188Q29.917 15.375 30 15.708L33.333 25.333V37.625Q33.333 37.917 33.125 38.125Q32.917 38.333 32.625 38.333H32.5Q32.167 38.333 31.979 38.125Q31.792 37.917 31.792 37.625V34.958H8.208V37.625Q8.208 37.917 8 38.125Q7.792 38.333 7.5 38.333ZM8.667 23.917H31.333L28.708 16.417H11.292ZM8.083 33.542V25.333V33.542ZM12.208 31.25Q12.958 31.25 13.458 30.708Q13.958 30.167 13.958 29.458Q13.958 28.667 13.438 28.146Q12.917 27.625 12.167 27.625Q11.417 27.625 10.896 28.146Q10.375 28.667 10.375 29.458Q10.375 30.208 10.917 30.729Q11.458 31.25 12.208 31.25ZM27.833 31.25Q28.583 31.25 29.104 30.708Q29.625 30.167 29.625 29.458Q29.625 28.667 29.104 28.146Q28.583 27.625 27.833 27.625Q27.083 27.625 26.562 28.146Q26.042 28.667 26.042 29.458Q26.042 30.208 26.583 30.729Q27.125 31.25 27.833 31.25ZM8.083 33.542H31.917V25.333H8.083Z"/></svg>
